X:763
%%etbk:tnset id:493,pos:1,rep:3x,ant:
%%etbk:pldat 2016-06-09T18:35,2016-06-08T15:57,2016-06-07T15:55,2016-06-04T14:59,2016-06-01T16:22,2016-05-31T16:38,2016-05-29T11:29,2016-05-19T18:38,2016-05-18T16:19,2016-05-17T15:56,2016-05-16T14:31,2016-05-14T15:45,2016-05-13T16:02,2016-05-11T16:03,2016-05-09T18:46,2016-03-02T16:13,2016-03-01T17:36,2016-02-29T18:42,2016-02-27T13:34,2016-02-04T18:53,2016-02-03T15:57,2016-02-02T16:37,2016-02-01T18:38,2016-01-28T18:59,2016-01-26T16:11,2016-01-23T15:27,2016-01-20T16:12,2016-01-17T12:57,2016-01-16T15:00,2015-11-20T16:04,2015-11-19T18:25,2015-11-18T15:56,2015-11-17T15:50,2015-11-15T14:13,2015-11-14T14:58,2015-11-13T18:16,2015-11-12T19:02,2015-11-11T16:42,2015-11-10T15:19,2015-11-08T13:19,2015-11-04T16:54,2015-11-03T17:33,2015-11-01T14:23,2015-10-24T14:33,2015-10-20T16:35,2015-10-19T18:24,2015-10-17T14:49,2015-10-14T16:40
T: James Brown's March
Z: Piano Box Version by Martin Fleischmann
H: Created 2015-10-13 /  Last Modified 2015-10-13
R: reel
M: 4/4
L: 1/8
K: Gmaj
!1!~D3E G/G/!4!A!1!A2-|!2!B!5!g!4!ed !4!e/!5!g/e/d/ !2!Bd/B/|~!1!A3B de!5!g2-|!3!g!5!bag !2!e4|
~D3E G/G/AA2-|B g2 e/d/ d/e/e/d/ !1!A/B/!1!A/G/|~!1!A3B deg2-|g b2 a/g/ e3-e/ f/|
|:!5!g/e/d/B/ !1!Ag/e/ d/B/!1!A z !1!G-|G/A/B/A/ BBBA ~GE E2| !5!g/e/d/!1!B/ !2!cg/e/ d/B/c z g-|1ga b/a/g e3-e/ f/:|2ga b/a/g e2e2|


